dist/img/instagram.svg

<svg width="24" height="24" viewBox="0 0 24 24" fill="none" xmlns="http://www.w3.org/2000/svg">
<path d="M18 5C18 4.44772 18.4477 4 19 4C19.5523 4 20 4.44772 20 5C20 5.55228 19.5523 6 19 6C18.4477 6 18 5.55228 18 5Z" fill="white"/>
<path d="M11 1.5H13V0.5H11V1.5ZM22.5 11V13H23.5V11H22.5ZM13 22.5H11V23.5H13V22.5ZM1.5 13V11H0.5V13H1.5ZM11 22.5C8.62884 22.5 6.90077 22.4989 5.58026 22.3214C4.27414 22.1458 3.44187 21.8058 2.81802 21.182L2.11091 21.8891C2.95153 22.7297 4.03 23.122 5.44702 23.3125C6.84965 23.5011 8.65711 23.5 11 23.5V22.5ZM0.5 13C0.5 15.3429 0.498938 17.1504 0.687517 18.553C0.878029 19.97 1.2703 21.0485 2.11091 21.8891L2.81802 21.182C2.19417 20.5581 1.8542 19.7259 1.6786 18.4197C1.50106 17.0992 1.5 15.3712 1.5 13H0.5ZM22.5 13C22.5 15.3712 22.4989 17.0992 22.3214 18.4197C22.1458 19.7259 21.8058 20.5581 21.182 21.182L21.8891 21.8891C22.7297 21.0485 23.122 19.97 23.3125 18.553C23.5011 17.1504 23.5 15.3429 23.5 13H22.5ZM13 23.5C15.3429 23.5 17.1504 23.5011 18.553 23.3125C19.97 23.122 21.0485 22.7297 21.8891 21.8891L21.182 21.182C20.5581 21.8058 19.7259 22.1458 18.4197 22.3214C17.0992 22.4989 15.3712 22.5 13 22.5V23.5ZM13 1.5C15.3712 1.5 17.0992 1.50106 18.4197 1.6786C19.7259 1.8542 20.5581 2.19417 21.182 2.81802L21.8891 2.11091C21.0485 1.2703 19.97 0.878029 18.553 0.687517C17.1504 0.498938 15.3429 0.5 13 0.5V1.5ZM23.5 11C23.5 8.65711 23.5011 6.84965 23.3125 5.44702C23.122 4.03 22.7297 2.95153 21.8891 2.11091L21.182 2.81802C21.8058 3.44187 22.1458 4.27414 22.3214 5.58026C22.4989 6.90077 22.5 8.62884 22.5 11H23.5ZM11 0.5C8.65711 0.5 6.84965 0.498938 5.44702 0.687517C4.03 0.878029 2.95153 1.2703 2.11091 2.11091L2.81802 2.81802C3.44187 2.19417 4.27414 1.8542 5.58026 1.6786C6.90077 1.50106 8.62884 1.5 11 1.5V0.5ZM1.5 11C1.5 8.62884 1.50106 6.90077 1.6786 5.58026C1.8542 4.27414 2.19417 3.44187 2.81802 2.81802L2.11091 2.11091C1.2703 2.95153 0.878029 4.03 0.687517 5.44702C0.498938 6.84965 0.5 8.65711 0.5 11H1.5ZM5.5 12C5.5 15.5899 8.41015 18.5 12 18.5V17.5C8.96243 17.5 6.5 15.0376 6.5 12H5.5ZM12 18.5C15.5899 18.5 18.5 15.5899 18.5 12H17.5C17.5 15.0376 15.0376 17.5 12 17.5V18.5ZM18.5 12C18.5 8.41015 15.5899 5.5 12 5.5V6.5C15.0376 6.5 17.5 8.96243 17.5 12H18.5ZM12 5.5C8.41015 5.5 5.5 8.41015 5.5 12H6.5C6.5 8.96243 8.96243 6.5 12 6.5V5.5Z" fill="white"/>
</svg>

<svg width="24" height="24" fill="none" xmlns="http://www.w3.org/2000/svg"><path d="M18 5a1 1 0 1 1 2 0 1 1 0 0 1-2 0Zm-7-3.5h2v-1h-2v1ZM22.5 11v2h1v-2h-1ZM13 22.5h-2v1h2v-1ZM1.5 13v-2h-1v2h1Zm9.5 9.5c-2.371 0-4.1-.001-5.42-.179-1.306-.175-2.138-.515-2.762-1.139l-.707.707c.84.84 1.919 1.233 3.336 1.424 1.403.188 3.21.187 5.553.187v-1ZM.5 13c0 2.343-.001 4.15.188 5.553.19 1.417.582 2.495 1.423 3.336l.707-.707c-.624-.624-.964-1.456-1.14-2.762C1.502 17.1 1.5 15.37 1.5 13h-1Zm22 0c0 2.371-.001 4.1-.179 5.42-.175 1.306-.515 2.138-1.139 2.762l.707.707c.84-.84 1.233-1.919 1.424-3.336.188-1.403.187-3.21.187-5.553h-1ZM13 23.5c2.343 0 4.15.001 5.553-.188 1.417-.19 2.495-.582 3.336-1.423l-.707-.707c-.624.624-1.456.964-2.762 1.14-1.32.177-3.049.178-5.42.178v1Zm0-22c2.371 0 4.1.001 5.42.179 1.306.175 2.138.515 2.762 1.139l.707-.707C21.05 1.27 19.97.878 18.553.688 17.15.498 15.343.5 13 .5v1ZM23.5 11c0-2.343.001-4.15-.188-5.553-.19-1.417-.582-2.495-1.423-3.336l-.707.707c.624.624.964 1.456 1.14 2.762.177 1.32.178 3.049.178 5.42h1ZM11 .5C8.657.5 6.85.499 5.447.688 4.03.878 2.952 1.27 2.111 2.11l.707.707c.624-.624 1.456-.964 2.762-1.14C6.9 1.502 8.63 1.5 11 1.5v-1ZM1.5 11c0-2.371.001-4.1.179-5.42.175-1.306.515-2.138 1.139-2.762l-.707-.707C1.27 2.95.878 4.03.688 5.447.498 6.85.5 8.657.5 11h1Zm4 1a6.5 6.5 0 0 0 6.5 6.5v-1A5.5 5.5 0 0 1 6.5 12h-1Zm6.5 6.5a6.5 6.5 0 0 0 6.5-6.5h-1a5.5 5.5 0 0 1-5.5 5.5v1Zm6.5-6.5A6.5 6.5 0 0 0 12 5.5v1a5.5 5.5 0 0 1 5.5 5.5h1ZM12 5.5A6.5 6.5 0 0 0 5.5 12h1A5.5 5.5 0 0 1 12 6.5v-1Z" fill="#fff"/></svg>
